X: 131005
Q: "Scotch Jig."
M: 6/8
L: 1/8
K: D
uf |\
(d/e/) |\
vf2vf fef | va2vf fed | ve2ve egf | e3- e(ag) |\
fed def | ABA AFG | ABA Afe | d3- d2 |]


